src/assets/reload.svg

<svg fill="none" height="80" viewBox="0 0 80 80" width="80" xmlns="http://www.w3.org/2000/svg"><g clip-rule="evenodd" fill="#fff" fill-rule="evenodd"><path d="m40.0006 15.9974c-8.9898 0-16.829 4.9415-20.9432 12.2692-.721 1.2841-2.3466 1.7407-3.6308 1.0197-1.2841-.7211-1.7407-2.3466-1.0197-3.6308 5.0199-8.9407 14.5984-14.9914 25.5937-14.9914 16.2003 0 29.3333 13.1329 29.3333 29.3333s-13.133 29.3333-29.3333 29.3333c-16.2004 0-29.3334-13.1329-29.3334-29.3333 0-1.4728 1.1939-2.6667 2.6667-2.6667s2.6667 1.1939 2.6667 2.6667c0 13.2548 10.7451 24 24 24 13.2548 0 24-10.7452 24-24s-10.7452-24-24-24z"/><path d="m15.9902 11.1196c1.4727 0 2.6666 1.1939 2.6666 2.6667v10.6667h10.6667c1.4727 0 2.6667 1.1939 2.6667 2.6666 0 1.4728-1.194 2.6667-2.6667 2.6667h-13.3333c-1.4728 0-2.6667-1.1939-2.6667-2.6667v-13.3333c0-1.4728 1.1939-2.6667 2.6667-2.6667z"/></g></svg>

<svg width="80" height="80" viewBox="0 0 80 80" fill="none" xmlns="http://www.w3.org/2000/svg">
<path fill-rule="evenodd" clip-rule="evenodd" d="M40.0006 15.9974C31.0108 15.9974 23.1716 20.9389 19.0574 28.2666C18.3364 29.5507 16.7108 30.0073 15.4266 29.2863C14.1425 28.5652 13.6859 26.9397 14.4069 25.6555C19.4268 16.7148 29.0053 10.6641 40.0006 10.6641C56.2009 10.6641 69.3339 23.797 69.3339 39.9974C69.3339 56.1978 56.2009 69.3307 40.0006 69.3307C23.8002 69.3307 10.6672 56.1978 10.6672 39.9974C10.6672 38.5246 11.8611 37.3307 13.3339 37.3307C14.8067 37.3307 16.0006 38.5246 16.0006 39.9974C16.0006 53.2522 26.7457 63.9974 40.0006 63.9974C53.2554 63.9974 64.0006 53.2522 64.0006 39.9974C64.0006 26.7426 53.2554 15.9974 40.0006 15.9974Z" fill="white"/>
<path fill-rule="evenodd" clip-rule="evenodd" d="M15.9902 11.1196C17.4629 11.1196 18.6568 12.3135 18.6568 13.7863V24.453H29.3235C30.7962 24.453 31.9902 25.6469 31.9902 27.1196C31.9902 28.5924 30.7962 29.7863 29.3235 29.7863H15.9902C14.5174 29.7863 13.3235 28.5924 13.3235 27.1196V13.7863C13.3235 12.3135 14.5174 11.1196 15.9902 11.1196Z" fill="white"/>
</svg>
